X: 21467
T: Kevin McHugh's
R: jig
M: 6/8
K: Gmajor
|:c|B2 d ded|BAB GAB|AGE DEG|B/A/GE D2 c|
B2 d ded|BAB GAB|AGE DEG|ABA G2:|
|:c|BAB GAB|cBc ABc|BAG GFG|ABc D2 c|
BAB GAB|cec BdB|AGE DEG|ABA G2:|

